X:1
M:3/4
L:1/8
K:Ador
cd |\
e2 e2 d2 | e2 G2 AB | c2 d2 B2 | A4 AB |\
cA c2 d2 | a2 e2 e2 | f2 g2 f2 | e4 ||
AB |\
cA c2 d2 | a2 e2 e2 | f2 g2 f2 | e4 cd |\
e2 e2 d2 | e2 G2 AB | c2 d2 B2 | A4 |]
